assets/images/afrikons/sad.svg

<svg viewBox="0 0 50 50" xmlns="http://www.w3.org/2000/svg"><g fill="none"><path d="m18.83 19.33v-4.41a17.82 17.82 0 0 0 -7.65 1.71l1.89 4a13.4 13.4 0 0 1 5.76-1.3z"/><path d="m33.76 37.35 3.08-3.16a17 17 0 0 0 -23.67 0l3.07 3.16a12.58 12.58 0 0 1 17.52 0z"/><path d="m31.17 19.33a13.48 13.48 0 0 1 5.77 1.29l1.89-4a17.89 17.89 0 0 0 -7.66-1.71z"/></g><path d="m42.68 7.32a25 25 0 1 0 -35.36 35.35 25 25 0 1 0 35.36-35.35zm-23.85 7.6v4.41a13.4 13.4 0 0 0 -5.76 1.29l-1.89-4a17.82 17.82 0 0 1 7.65-1.7zm-5.66 19.27a17 17 0 0 1 23.67 0l-3.08 3.16a12.58 12.58 0 0 0 -17.52 0zm23.77-13.57a13.48 13.48 0 0 0 -5.77-1.29v-4.41a17.89 17.89 0 0 1 7.66 1.71z"/></svg>

<svg xmlns="http://www.w3.org/2000/svg" viewBox="0 0 50 50"><defs><style>.cls-1{fill:none;}</style></defs><title>sad</title><g id="Layer_2" data-name="Layer 2"><g id="Layer_1-2" data-name="Layer 1"><path class="cls-1" d="M18.83,19.33V14.92a17.82,17.82,0,0,0-7.65,1.71l1.89,4A13.4,13.4,0,0,1,18.83,19.33Z"/><path class="cls-1" d="M33.76,37.35l3.08-3.16a17,17,0,0,0-23.67,0l3.07,3.16a12.58,12.58,0,0,1,17.52,0Z"/><path class="cls-1" d="M31.17,19.33a13.48,13.48,0,0,1,5.77,1.29l1.89-4a17.89,17.89,0,0,0-7.66-1.71Z"/><path d="M42.68,7.32A25,25,0,1,0,7.32,42.67,25,25,0,1,0,42.68,7.32Zm-23.85,7.6v4.41a13.4,13.4,0,0,0-5.76,1.29l-1.89-4A17.82,17.82,0,0,1,18.83,14.92ZM13.17,34.19a17,17,0,0,1,23.67,0l-3.08,3.16a12.58,12.58,0,0,0-17.52,0ZM36.94,20.62a13.48,13.48,0,0,0-5.77-1.29V14.92a17.89,17.89,0,0,1,7.66,1.71Z"/></g></g></svg>
